!!!COM: Felix Mendelssohn
!!!CNT: Deutsch
!!!TXO: Deutsch
!!!OTL: Im Herbst
!!!LYR: C. Klingemann
!!!OPS: Op. 9
!!!ONM: No. 5
!!!ENC: Daniel Alt & Leigh VanHandel
!!!YOR: Sa2mmtliche Lieder fu2r eine Singstimme 
!!!YOR: Neu revidirt von Dr. L. Benda, Ausgabe fu2r mittlere Stimme
!!!YOR: Braunschweig. Henry Litolff's Verlag. Boston and New York: Arthur P. Schmidt.
!!!ODT: 1827/
**kern
*staff1
=1-
*clefG2
*k[f#c#g#]
*M2/4
{8.cc#
16a
8f#
8g#
=2
8a
8b
8cc#
8dd}
=3
{8cc#
8ff#
8.ee
16dd
=4
8cc#
8b
4g#}
=5
{8.cc#
16a
8f#
8g#
=6
8a
8b
8cc#
8dd
=7
8cc#
8ff#
8.ee
16dd#
=8
8cc#
8ccn
8cc#}
8r
=9
{8g#
8g#
8cc#
8g#
=10
8.b
16a
8a
8g#}
=11
{8g#
8g#
8cc#
8g#
=12
8.b
16a
8a
8g#}
=13
{8.a
16fn
8f#
8r
=14
8.dd
16b
8g#
8r
=15
8.cc#
16a
8f#
8g#
=16
8a
8b
8cc#
8dd}
=17
{8cc#
8ff#
8.cc#
16f#
=18
8.a
16g#
8f#}
8r
=19
{8.cc#
16b
8a
8r
=20
8.ee
16dd
8cc#
8r
=21
8.cc#
16a
8f#
16fn
16g#
=22
4g#
8f#}
8r
==
*-